X:84
T: Der heimkehrende Soldat
N: Q0103A
O: Mitteleuropa, Deutschland (BRD) , Hessen, Nassau,
N: Anhaengsel an einigen Zeilen.
R: Ballade, Ehe, Betrug
M: 6/4
L: 1/4
K: F
C | F2FF2F | E2GB2G | F3-F2
C | F2FF2F | E2GB2G | F3-F2
c | c2AAAc | c2BB2
A | AAGG2d | d2cc2B | A3-A2
c | c2AAAc | c2BB2
A | AAGG2d | d2cc2B | A3-A2

